!!!!SEGMENT: pl-wtm--r-704-m--016_moniuszko-stanislaw--widma-no-10.krn
!!!cenid: 18xx:3071
!!!COM: Moniuszko, Stanisław
!!!COM-rismid: pe30008351
!!!CDT: 1819/05/05-1872/06/04
!!!CNT: Polish
!!!GTL: Widma
!!!OTL: No. 10
!!!OMV: 016
!!!PDT: 1852
!!!AGN: Secular
!!!SMS-siglum: PL-Wtm
!!!SMS-shelfmark: R 704/M
!!!SMS-shelfwork: G
!!!SMS-variant:
!!!SMS-altvar:
!!!NIFC-rismid: 1001093778
!!!URL-scan: http://repozytorium.nifc.pl/skany/pl-wtm-nut--r704m
!!!ONB-nifc: UWAGA: skany 0058-0059. Nie wpisywać tekstu rosyjskiego i samodzielnych dialogów poza krótkimi didaskaliami.
!!!OMD: Allegretto.
!!!AIN: 2 empty 1 vox
!!!key:
**kern	**kern	**dynam	**kern	**text	**text	**dynam
*part3	*part2	*part2	*part1	*part1	*part1	*part1
*staff3	*staff2	*	*staff1	*staff1	*staff1	*
*Iempty	*Iempty	*	*Ivox	*	*	*
*I"[Forte-Piano.]	*I"[Forte-Piano.]	*	*I"Sofia (La fanciulla)	*	*	*
*	*	*	*I'	*	*	*
*clefF4	*clefG2	*	*clefG2	*	*	*
*k[f#c#g#d#]	*k[f#c#g#d#]	*	*k[f#c#g#d#]	*	*	*
*E:	*E:	*	*E:	*	*	*
*M6/8	*M6/8	*	*M6/8	*	*	*
=1	=1	=1	=1	=1	=1	=1
!	!	!	!LO:TX:a:t=P:problem=Tekst włoski i polski zamieniają się względem siebie miejscami, niektóre słowa przez to oddzielone. Możliwe błędy w tekście włoskim	!	!	!
!	!	!	!LO:TX:a:t=P:znaki:problem= f# zamiast ff#, g# zamiast gg#	!	!	!
!	!	!	!LO:TX:t=No 10. Piosnka Zośi.\nCanzone di Sofia	!	!	!
2.r	(8.e/L	p	2.r	.	.	.
.	16b/L	.	.	.	.	.
.	16cc#/	.	.	.	.	.
.	16ee/JJ	.	.	.	.	.
.	16bb\LL	.	.	.	.	.
.	16ccc#\	.	.	.	.	.
.	16eee\	.	.	.	.	.
.	16ccc#\	.	.	.	.	.
.	16bb\	.	.	.	.	.
.	16ee\JJ	.	.	.	.	.
=2	=2	=2	=2	=2	=2	=2
4r	16cc#/LL	.	2.r	.	.	.
.	16b/	.	.	.	.	.
.	16e/	.	.	.	.	.
.	16b/	.	.	.	.	.
8r	16cc#/	.	.	.	.	.
.	16ee/JJ)	.	.	.	.	.
8BB/L	8d#/L 8dd#	.	.	.	.	.
8C#/	8e/ 8cc#	.	.	.	.	.
8D#/J	8f#/J 8b	.	.	.	.	.
=3	=3	=3	=3	=3	=3	=3
*	*^	*	*	*	*	*
*	*	*^	*	*	*	*	*
*2\right	*	*	*	*	*	*	*	*
!	!LO:TX:t=P:problem=mixed beam	!	!	!	!	!	!	!
2.E\	(8g#/L	(<8e\L	4.ryy	.	8g#/	Tu	Quel-	.
.	8f#/ 8b	8d#\	.	.	8b/	nie-	-la	.
.	8e/J 8a#X	8c#\	.	.	8a#X/	-gdyś	son	.
.	8an/L	8cn</	4.dny\	.	8an/	w wio-	io	.
.	8g#/	8B<\	.	.	8cc#/	-sny	che il	.
.	8f#/J)	8A<\J)	.	.	8b/	po-	vil-	.
*	*v	*v	*v	*	*	*	*	*
!!linebreak:original
=4	=4	=4	=4	=4	=4	=4
.	(8qb/	.	.	.	.	.
*^	*	*	*	*	*	*
(<8G#/L	2E\	(8.e/L)	.	4.e/	-ran-	-lag-	.
8B/)	.	.	.	.	.	.	.
.	.	16d#/K	.	.	.	.	.
(<8G#/	.	8e/J	.	.	.	.	.
8B/)	.	8.d#/L 8.f#	.	8f#/	-ki,	-gio	.
(8F#/	4ryy	.	.	8e/	naj-	de-	.
.	.	16c#/K 16e	.	.	.	.	.
8B/J)	.	8d#/J 8f#	.	8f#/	-pięk-	-si-	.
*v	*v	*	*	*	*	*	*
=5	=5	=5	=5	=5	=5	=5
*	*^	*	*	*	*	*
8E/L	8.e/L 8.g#	4.ryy	.	8.g#/L	-niej-	-gno...	.
8B/	.	.	.	.	.	.	.
.	16d#/K 16f##X	.	.	16f##X/Jk	.	.	.
8E/J	8e/J 8g#	.	.	8g#/	-sza	co-	.
8An/L	8.b/L	4.dn\ 4.f#X	.	8.b/L	z te-	-me	.
8F#/	.	.	.	.	.	.	.
.	16a#X/K	.	.	16a#X/Jk	.	.	.
8B/J	[8b/J)	.	.	8b/	-go	piu	.
*	*v	*v	*	*	*	*	*
=6	=6	=6	=6	=6	=6	=6
*^	*	*	*	*	*	*
!LO:TX:t=P:problem=mixed beam	!	!	!	!	!	!	!
(8G#/L	2.E\	4.e/ 4.g# 4.b] [4.ee	.	[4.ee\	sio-	bel-	.
8B/	.	.	.	.	.	.	.
8e>\J	.	.	.	.	.	.	.
!LO:TX:t=P:problem=mixed beam	!	!	!	!	!	!	!
8f#>\L	.	4a/ 4ee]	.	8ee\L]	.	.	.
8B/	.	.	.	16dd#\L	.	.	.
.	.	.	.	16cc#\JJ	.	.	.
8d#>\J)	.	8f#/ 8b	.	16b\LL	-ła,	-la,	.
.	.	.	.	16a\JJ	.	.	.
*v	*v	*	*	*	*	*	*
=7	=7	=7	=7	=7	=7	=7
8r	8g#/L	.	8g#/	Zo-	che	.
(8G#/L	(8B/ 8b	.	8b/	-sia	sugli	.
8Gn/J	8c#/J 8a#X	.	8a#X/	pa-	al-	.
8F#/L	8d#/L 8an	.	8an/	-sa-	-bo-	.
8E/	8e/ 8cc#	.	8cc#\	-jąc	-ri	.
8D#/J)	8f#/J) 8b	.	8b\	ba-	di	.
!!linebreak:original
=8	=8	=8	=8	=8	=8	=8
.	(8qb/	.	.	.	.	.
*^	*	*	*	*	*	*
8E/L	2.EE\	4.G#)/ 4.e	.	4.e/	-ran-	Mag-	.
16BB/L	.	.	.	.	.	.	.
16D#/J	.	.	.	.	.	.	.
[<8E/J	.	.	.	.	.	.	.
.	.	(8qb/	.	.	.	.	.
8E/L]	.	4.B/) 4.f#	.	4.f#/	-ki,	-gio....	.
16BB/L	.	.	.	.	.	.	.
16D#/J	.	.	.	.	.	.	.
[<8E/J	.	.	.	.	.	.	.
=9	=9	=9	=9	=9	=9	=9	=9
*	*	*^	*	*	*	*	*
!LO:TX:t=P:problem=mixed beam	!	!	!	!	!	!	!	!
*	*	*	*2\right	*	*	*	*	*
8E/]	(>8EE/L	4.g#/	2.e\	.	8.g#/	ska-	pas-	.
2ryy	8E\	.	.	.	.	.	.	.
.	.	.	.	.	16f#/	-cze	-ser	.
.	8D#\J	.	.	.	8g#/	i	so-	.
!LO:TX:t=P:problem=mixed beam	!	!	!	!	!	!	!	!
.	8C#\L	4.a#X/	.	.	8a#X/	śpiè-	-le-	.
.	8FF#/)	.	.	.	8g#X/	-wa	-va	.
8ryy	[8F#\J	.	.	.	8a#/	we-	le a-	.
*v	*v	*	*	*	*	*	*	*
*	*v	*v	*	*	*	*	*
=10	=10	=10	=10	=10	=10	=10
8BB\ 8F#]	8d#/ 8b	.	(4b/	-so-	-gnel-	.
8r	8r	.	.	.	.	.
8r	8r	.	16a#X/	-ła,	-la	.
*	*	*	*	*	*ij	*
.	.	.	16b/	la,	la,	.
(>8qGG#/	.	.	.	.	.	.
(4.G#\)	8r	.	4ee\)	la,	la,	.
.	8B:/ 8e: 8b:	.	.	.	.	.
.	8r	.	16a#/	la,	la,	.
.	.	.	16b/	la,	la,	.
=11	=11	=11	=11	=11	=11	=11
8qAA/	.	.	.	.	.	.
4.A\	8r	.	4dd#\	la,	la,	.
.	8B:/ 8d#: 8f#: 8b:	.	.	.	.	.
.	8r	.	16a#X\	la,	la,	.
.	.	.	16b\	la,	la,	.
(>8qGG#/	.	.	.	.	.	.
4.G#\))	8r	.	4ee\	la,	la,	.
.	8B:/ 8e: 8b:	.	.	.	.	.
!	!	!	!	!	!	!LO:DY:a
.	8r	.	16a#\	la,	la,	<
.	.	.	16b\	la	la	[[
!!linebreak:original
*	*	*	*	*	*	*
=12	=12	=12	=12	=12	=12	=12
!	!	!	!	!	!	!LO:DY:a
(<4.GGG#/ 4.GG#	8r	.	[4.dd#\	la,	la,	f
.	8d#/L 8f# 8b#X	>	.	.	.	.
.	[8d#/J [>8f# [8b#	.	.	.	.	.
4AAA/ 4AA	8d#/L] 8f#] 8b#]	.	8dd#\L]	.	.	.
.	8c#/ 8e 8cc#	.	8cc#\J	.	.	.
8AAA#X/ 8AA#X	8c#/J 8e 8f#	]]	8e/	la,	la,	.
=13	=13	=13	=13	=13	=13	=13
*^	*	*	*	*	*	*
!	!	!	!	!	!	!	!LO:DY:a
8ryy	2.BBB/) 2.BB	8B/ 8e 8g#	.	(8g#/	la,	la,	<
8B>\L 8d#>	.	8b/L 8gg# 8bb	p	4b/)	.	.	[
8c#>\ 8e>	.	8ff##X/ 8aa#X	.	.	.	.	.
!	!	!	!	!	!	!	!LO:DY:a
8d#>\ 8f#>	.	8ff#X/ 8aan	.	(8f#/	la,	la,	<
8e>\ 8g#>	.	8ee/ 8gg#	.	4b/)	.	.	[
8f#>\J 8a>	.	8dd#/J 8ff#	.	.	.	.	.
*v	*v	*	*	*	*	*	*
=14	=14	=14	=14	=14	=14	=14
!LO:TX:t=P:problem=mixed beam	!	!	!	!	!	!
8E/L	8.g#/L 8.ee	.	4e/	la.	la.	.
*	*	*	*	*	*Xij	*
8B>\ 8g#>	.	.	.	.	.	.
.	16b/L	.	.	.	.	.
8E/J	16cc#/	.	8r	.	.	.
.	16ee/JJ	.	.	.	.	.
!LO:TX:t=P:problem=mixed beam	!	!	!	!	!	!
8B>\L 8g#>	16bb\LL	.	4r	.	.	.
.	16ccc#\	.	.	.	.	.
8E/	16eee\	.	.	.	.	.
.	16ccc#\	.	.	.	.	.
8B\J 8g#	16bb\	.	8r	.	.	.
.	16ee\JJ	.	.	.	.	.
=15	=15	=15	=15	=15	=15	=15
!LO:TX:t=P:problem=mixed beam	!	!	!	!	!	!
8E/L	16cc#/LL	.	2.r	.	.	.
.	16b/	.	.	.	.	.
8B>\ 8g#>	16e/	.	.	.	.	.
.	16b/	.	.	.	.	.
8E/J	16cc#/	.	.	.	.	.
.	16ee/JJ	.	.	.	.	.
!LO:TX:t=P:problem=mixed beam	!	!	!	!	!	!
8B>\L 8a>	8f#/L 8dd#	.	.	.	.	.
8E/	8e/ 8cc#	.	.	.	.	.
!	!LO:TX:b:t=V&colon;S&colon;	!	!	!	!	!
8B>\J 8a>	8d#/J 8b	.	.	.	.	.
!!pagebreak:original
=16	=16	=16	=16	=16	=16	=16
*	*8va	*	*	*	*	*
!LO:TX:t=P:problem=mixed beam	!	!	!	!	!	!
8E/L	8.ee^</L	.	2.r	.	.	.
8B>\ 8g#>	.	.	.	.	.	.
.	16bb/L	.	.	.	.	.
8E/J	16ccc#/	.	.	.	.	.
.	16eee/JJ	.	.	.	.	.
!LO:TX:t=P:problem=mixed beam	!	!	!	!	!	!
8B>\L 8g#>	16bbb\LL	.	.	.	.	.
.	16cccc#\	.	.	.	.	.
8E/	16eeee\	.	.	.	.	.
.	16cccc#\	.	.	.	.	.
8B>\J 8g#>	16bbb\	.	.	.	.	.
.	16eee\JJ	.	.	.	.	.
=17	=17	=17	=17	=17	=17	=17
!LO:TX:t=P:problem=mixed beam	!	!	!	!	!	!
8E/L	16ccc#/LL	.	2.r	.	.	.
.	16bb/	.	.	.	.	.
8B>\ 8g#>	16ee/	.	.	.	.	.
.	16bb/	.	.	.	.	.
8E/J	16ccc#/	.	.	.	.	.
.	16eee/JJ	.	.	.	.	.
!LO:TX:t=P:problem=mixed beam	!	!	!	!	!	!
8B>\L 8a>	8ff#/L 8ddd#	.	.	.	.	.
8E/	8ee/ 8ccc#	.	.	.	.	.
8B>\J 8a>	8dd#/J 8bb	.	.	.	.	.
*	*X8va	*	*	*	*	*
=18	=18	=18	=18	=18	=18	=18
*^	*	*	*	*	*	*
*	*	*	*	*	*above	*	*
!LO:TX:t=P:problem=mixed beam	!	!	!	!	!	!	!
8e>\L	2.E\	(>8g#/L 8ee	.	(8g#/L	Nel-	O-	.
8d#>\	.	8f#/ 8b	.	8b/J)	.	.	.
8c#>\	.	8e/J 8a#X	.	8a#X/	-l` of-	-leś	.
8cn/	.	8an/L	.	(8an/L	-frir-	za	.
8B/	.	8g#/	.	8cc#/J)	.	.	.
8A/J	.	8f#/J)	.	8b/	-mi	go-	.
=19	=19	=19	=19	=19	=19	=19	=19
.	.	(8qb/	.	.	.	.	.
8G#/L	2.E\	(>8.e/L)	.	4e/	due	-łąb-	.
8B/	.	.	.	.	.	.	.
.	.	16d#/K	.	.	.	.	.
8G#/J	.	8e/J	.	8e/	co-	-ków	.
8B/L	.	8.d#/L 8.f#	.	8.f#/	-lom-	pa-	.
8F#/	.	.	.	.	.	.	.
.	.	16c#/K 16e	.	16e/k	.	-rę	.
8B/J	.	8d#/J 8f#	.	8f#/	-be	chciał	.
!!linebreak:original
*	*	*	*	*	*below	*	*
=20	=20	=20	=20	=20	=20	=20	=20
*	*	*^	*	*	*	*	*
8E/L	2.E\	8.e/L 8.g#	4.ryy	.	8.g#/	San-	raz	.
8B/	.	.	.	.	.	.	.	.
.	.	16d#/K 16f##X	.	.	16f##X/	-dio	po-	.
8E/J	.	8e/J 8g#	.	.	8g#/	mi	-ca-	.
!	!	!	!	!	!LO:TX:t=P:problem=tekst włoski niewyraźny	!	!	!
8A/L	.	8b/L	4.d#\ 4.f#X	.	8b/L	chi`e	-ło-	.
8F#/	.	8a#X/	.	.	8a#X/J	.	.	.
8B/J	.	8b/J)	.	.	8b/	de`	-wać	.
*	*	*v	*v	*	*	*	*	*
=21	=21	=21	=21	=21	=21	=21	=21
8E/L	2E\	4.e:/ 4.b: [4.gg#:	.	[4.ee\	ba-	w u-	.
8B/	.	.	.	.	.	.	.
8e/J	.	.	.	.	.	.	.
!LO:TX:t=P:problem=mixed beam	!	!	!	!	!	!	!
8f#/L	.	8gg#/L]	.	8ee\L]	.	.	.
8B/	4ryy	16ff#/L	.	16dd#\L	.	.	.
.	.	16ee/	.	16cc#\JJ	.	.	.
8BB/J	.	16dd#/	.	16b\LL	-ci	-sta,	.
.	.	16cc#/JJ	.	16a\JJ	.	.	.
=22	=22	=22	=22	=22	=22	=22	=22
8r	2.EE\	8g#/L 8b	.	8g#/L	ma	lecz	.
(<8G#/L	.	(8B/ 8g#	.	8b/J	ta-	.	.
8Gn/J	.	8c#/J 8a#X	.	8a#X/	-li	i	.
8F#/L	.	8d#/L 8an	.	8an/L	offer-	proź-	.
8E/	.	8e/ 8cc#	.	8cc#/J	-te	.	.
8D#/J)	.	8f#/J) 8b	.	8b/	pro-	-bę	.
=23	=23	=23	=23	=23	=23	=23	=23
.	.	(8qb/	.	.	.	.	.
8E/L	2.EE\	4.G#/) 4.e	.	4e/	-ca-	i	.
16BB/L	.	.	.	.	.	.	.
16D#/J	.	.	.	.	.	.	.
[<8E/J	.	.	.	8e/	-ci	o-	.
.	.	(8qb/	.	.	.	.	.
8E/L]	.	4.B/) 4.f#	.	8.f#/	gio-	-fia-	.
16BB/L	.	.	.	.	.	.	.
16D#/J	.	.	.	16e/k	.	-rę	.
[<8E/J	.	.	.	8f#/	-sin	wy-	.
!!linebreak:original
=24	=24	=24	=24	=24	=24	=24	=24
*	*	*^	*	*	*	*	*
!LO:TX:t=P:problem=mixed beam	!	!	!	!	!	!	!	!
8E/]	(>8EE/L	4.g#/	2.e\	.	8.g#/	ta-	-śmia-	.
2ryy	8E\	.	.	.	.	.	.	.
.	.	.	.	.	16f#/k	.	-ła	.
.	8D#\J	.	.	.	8g#/	-na	dziew-	.
!	!LO:TX:t=P:problem=mixed beam	!	!	!	!	!	!	!
.	8C#\L	4.a#X/	.	.	8a#X/L	non	-czy-	.
.	8FF#/)	.	.	.	8g#/J	.	.	.
8ryy	[8F#\J	.	.	.	8a#/	sol-	-na	.
*v	*v	*	*	*	*	*	*	*
*	*v	*v	*	*	*	*	*
=25	=25	=25	=25	=25	=25	=25
8BB\ 8F#]	8d#/ 8b	.	(4b\	-com-	pu-	.
8r	8r	.	.	.	.	.
8r	8r	.	16a#X\	-be	-sta.	.
*	*	*	*	*ij	*	*
.	.	.	16b\	La,	La,	.
(>8qGG#/	.	.	.	.	.	.
4.G#\	8r	.	4ee\)	la,	la,	.
.	8B:/ 8e: 8b:	.	.	.	.	.
.	8r	.	16a#\	la,	la,	.
.	.	.	16b\	la,	la,	.
=26	=26	=26	=26	=26	=26	=26
8qAA/	.	.	.	.	.	.
4.A\	8r	.	4dd#\	la,	la,	.
.	8B:/ 8d#: 8f#: 8b:	.	.	.	.	.
.	8r	.	16a#X\	la,	la,	.
.	.	.	16b\	la,	la,	.
8qGG#/	.	.	.	.	.	.
4.G#\)	8r	.	4ee\	la,	la,	.
.	8B:/ 8e: 8b:	.	.	.	.	.
!	!	!	!	!	!	!LO:DY:a
.	8r	.	16a#\	la,	la,	<
.	.	.	16b\	la,	la,	[[
=27	=27	=27	=27	=27	=27	=27
!	!	!	!	!	!	!LO:DY:a
(<4.GGG#/ 4.GG#	8r	f >	[4.dd#\	la,	la,	f
.	8d#/L 8f# 8b#X	.	.	.	.	.
.	[8d#/J [>8f# [8b#	.	.	.	.	.
4AAA/ 4AA	8d#/L] 8f#] 8b#]	.	8dd#\L]	.	.	.
.	8c#/ 8e 8cc#	.	8cc#\J	.	.	.
8AAA#X/ 8AA#X	8c#/J 8e 8f#	]]	8e/	la,	la,	.
!!linebreak:original
*	*	*	*	*	*	*Xij
=28	=28	=28	=28	=28	=28	=28
*^	*	*	*	*	*	*
!	!	!	!	!	!	!	!LO:DY:a
8ryy	2.BBB/ 2.BB)	8B/ 8e 8g#	.	(8g#/	la,	la,	<
(<8B>\L 8d#>	.	8b/L 8gg# 8bb	p	4b/)	.	.	[
8c#>\ 8e>	.	8ff##X/ 8aa#X	.	.	.	.	.
!	!	!	!	!	!	!	!LO:DY:a
8d#>\ 8f#>	.	8ffn#X/ 8aan	.	(8f#/	la,	la,	<
8e>\ 8g#>	.	8ee/ 8gg#	.	4b/)	.	.	[
8f#>\J) 8a>	.	8dd#/J 8ff#	.	.	.	.	.
*v	*v	*	*	*	*	*	*
=29	=29	=29	=29	=29	=29	=29
!LO:TX:t=P:problem=mixed beam	!	!	!	!	!	!
8E/L	8.g#/L 8.ee	.	4e/	la.	la.	.
8B>\ 8g#>	.	.	.	.	.	.
*	*8va	*	*	*Xij	*	*
.	16bb/L	.	.	.	.	.
8E/J	16ccc#/	.	8r	.	.	.
.	16eee/JJ	.	.	.	.	.
!LO:TX:t=P:problem=mixed beam	!	!	!	!	!	!
8B>\L 8g#>	16bbb\LL	.	4r	.	.	.
.	16cccc#\	.	.	.	.	.
8E/	16eeee\	.	.	.	.	.
.	16cccc#\	.	.	.	.	.
8B>\J 8g#>	16bbb\	.	8r	.	.	.
.	16eee\JJ	.	.	.	.	.
=30	=30	=30	=30	=30	=30	=30
!LO:TX:t=P:problem=mixed beam	!	!	!	!	!	!
8E/L	16ccc#/LL	.	2.r	.	.	.
.	16bb/	.	.	.	.	.
8B>\ 8g#>	16ee/	.	.	.	.	.
.	16bb/	.	.	.	.	.
8E/J	16ccc#/	.	.	.	.	.
.	16eee/JJ	.	.	.	.	.
!LO:TX:t=P:problem=mixed beam	!	!	!	!	!	!
8B>\L 8a>	8ff#/L 8ddd#	.	.	.	.	.
8E/	8ee/ 8ccc#	.	.	.	.	.
8B>\J 8a>	8dd#/J 8bb	.	.	.	.	.
=31	=31	=31	=31	=31	=31	=31
!LO:TX:t=P:problem=mixed beam	!	!	!	!	!	!
8E/L	8.ee^/L	.	2.r	.	.	.
8B>\ 8g#>	.	.	.	.	.	.
.	16bb/L	.	.	.	.	.
8E/J	16ccc#/	.	.	.	.	.
.	16eee/JJ	.	.	.	.	.
!LO:TX:t=P:problem=mixed beam	!	!	!	!	!	!
8B>\L 8g#>	16bbb\LL	.	.	.	.	.
.	16cccc#\	.	.	.	.	.
8E/	16eeee\	.	.	.	.	.
.	16cccc#\	.	.	.	.	.
8B>\J 8g#>	16bbb\	.	.	.	.	.
.	16eee\JJ	.	.	.	.	.
!!pagebreak:original
=32	=32	=32	=32	=32	=32	=32
!LO:TX:t=P:problem=mixed beam	!	!	!	!	!	!
8E/L	16ccc#/LL	.	2.r	.	.	.
.	16bb/	.	.	.	.	.
8B>\ 8g#>	16ee/	.	.	.	.	.
.	16bb/	.	.	.	.	.
8E/J	16ccc#/	.	.	.	.	.
.	16eee/JJ	.	.	.	.	.
!LO:TX:t=P:problem=mixed beam	!	!	!	!	!	!
8B>\L 8a>	8ff#/L 8ddd#	.	.	.	.	.
8E/	8ee/ 8ccc#	.	.	.	.	.
8B>\J 8a>	8dd#/J 8bb	.	.	.	.	.
*	*X8va	*	*	*	*	*
=33	=33	=33	=33	=33	=33	=33
[2.EE/ 2.E	(8g#/L 8ee	.	8g#/	Jó-	Un	.
.	8f#/ 8dd#	.	8.b/	-zio	no-	.
.	8e/ 8cc#	.	.	.	.	.
.	.	.	16a#X/	dał	-stro	.
.	8d#/ 8b	.	8an/	wstąż-	va-	.
.	8c#/ 8a	.	8cc#\	-kę	.	.
.	8d#/J 8f#	.	8b\	pas-	rio-	.
=34	=34	=34	=34	=34	=34	=34
2.EE/] 2.E	8e/L 8g#	.	8.e/L	-tèr-	-pin-	.
.	8d#/ 8b	.	.	.	.	.
.	.	.	16d#/Jk	.	-to	.
.	8c#/J 8a#X	.	8e/	-ce,	diè	.
.	8cn/L 8an	.	8.f#/L	An-	Bep-	.
.	8B/ 8g#	.	.	.	.	.
.	.	.	16e/Jk	.	-pe	.
.	8c/J 8f#	.	8f#/	-toś	e	.
=35	=35	=35	=35	=35	=35	=35
2.EE/	8G#</L 8e	.	8.g#/L	od-	To-	.
.	8F#</ 8d#	.	.	.	.	.
.	.	.	16f#/Jk	.	-nio	.
.	8E</J 8c#	.	8g#/	-dał,	ni	.
.	8D#</L 8B<	.	8.b/L	swo-	offer se	.
.	8C#</ 8E<	.	.	.	.	.
.	.	.	16a#X/Jk	.	il	.
.	8D#</J) 8F#<	.	8b/	-je	suo	.
!!linebreak:original
=36	=36	=36	=36	=36	=36	=36
.	16qqB/LL	.	.	.	.	.
.	16qqe/	.	.	.	.	.
.	16qqb/JJ	.	.	.	.	.
*^	*	*	*	*	*	*
!	!	!	!	!	!	!	!LO:DY:a
8G#/L	2.E\	((4.ee\	.	(4.gg#\	co-	ser-	p
8B/	.	.	.	.	.	.	.
8e/J	.	.	.	.	.	.	.
!LO:TX:t=P:problem=mixed beam	!	!	!	!	!	!	!
8f#/L	.	16dd#/LL)	.	16ff#\LL)	.	.	.
.	.	16cc#/	.	16ee\	.	.	.
8B/	.	16b/	.	16dd#\	.	.	.
.	.	16a/	.	16cc#\JJ	.	.	.
8dny>\J	.	16g#/	.	16b/LL	-re	-ce,	.
.	.	16f#/JJ)	.	16a/JJ	.	.	.
=37	=37	=37	=37	=37	=37	=37	=37
8r	2.EE\	8e/L	.	8g#/L	am-	lecz.	.
(<8G#/L	.	(8B/ 8g#	.	8b/J	-bi	.	.
8Gn/J	.	8c#/J 8a#X	.	8a#X/	ri-	i z	.
8F#/L	.	8d#/L 8an	.	8an/L	-ben-	Jó-	.
8E/	.	8e/ 8cc#	.	8cc#/J	-do	.	.
8D#/J)	.	8f#/J) 8b	.	8b\	ho re-	-zia	.
=38	=38	=38	=38	=38	=38	=38	=38
.	.	(8qb/	.	.	.	.	.
8E/L	4.EE\	4.G#/) 4.e	.	4e/	-spin-	i z	.
(<16BB/L	.	.	.	.	.	.	.
16D#/J)	.	.	.	.	.	.	.
[<8E/J	.	.	.	8e/	-to,	An-	.
.	.	(8qb/	.	.	.	.	.
!	!LO:N:vis=4	!	!	!	!	!	!
8E/L]	4.EE\	4.B/) 4.f#	.	8.f#/L	chè	-to-	.
(<16BB/L	.	.	.	.	.	.	.
16D#/J)	.	.	.	16e/Jk	.	.	.
[<8E/J	.	.	.	8f#/	sto-	-sia	.
=39	=39	=39	=39	=39	=39	=39	=39
*	*	*^	*	*	*	*	*
8E/]	(>8EE\L	(4.g#/	2.e\	.	8.g#/	-fi-	smie-	.
2ryy	8E\	.	.	.	.	.	.	.
.	.	.	.	.	16f#/	-a	-je	.
.	8D#\J	.	.	.	8g#/	non	się	.
!	!	!	!	!	!LO:SIC:v:s=8a#	!	!	!
.	8C#\L	4.a#X/	.	.	8a/	vol-	pierzch-	.
.	8FF#\)	.	.	.	8g#/	-le	-li-	.
8ryy	(8F#\J	.	.	.	8a/	a	-wa	.
*v	*v	*	*	*	*	*	*	*
*	*v	*v	*	*	*	*	*
!!linebreak:original
=40	=40	=40	=40	=40	=40	=40
!LO:TX:t=P:problem=brak zakończenia łuku (początek pięciolinii)	!	!	!	!	!	!
8BB;</)	8d#/) 8b	.	(8.b;\	Zo-	mo-	.
8r	8r;	.	.	.	.	.
.	.	.	(16ccn)\	-s-	.	.
8r	8r	.	16cc#X\	-sia!	-re	.
*	*	*	*	*	*ij	*
.	.	.	16ddn\	la,	la,	.
(>8qBB/	.	.	.	.	.	.
4.B^\)	8r	.	4ggn\)	la,	la,	.
.	8gn'\L 8ddn 8ggn	.	.	.	.	.
.	8g'\J 8dd 8gg	.	(16cc#\	la,	la,	.
.	.	.	16dd\	la,	la	.
=41	=41	=41	=41	=41	=41	=41
8qCn/	.	.	.	.	.	.
4.cn^\	8r	.	4ff#\)	la,	la,	.
.	8a'\L 8ddn 8ff#	.	.	.	.	.
.	8a'\J 8dd 8ff#	.	(16cc#\	la,	la,	.
.	.	.	16ddn\	la,	la	.
4.B^\	8r	.	4ggn\)	la,	la,	.
.	8gn'\L 8ddn 8ggn	.	.	.	.	.
.	8g'\J 8dd 8gg	.	(16cc#\	la,	la,	.
.	.	.	16dd\	la,	la,	.
=42	=42	=42	=42	=42	=42	=42
!	!	!	!	!	!	!LO:DY:a
((4.Cn\ <4.cn	(8a/L 8dd#X 8ff#	.	[4.ff#\)	la,	la,	>
.	8d#X/) 8f# 8a	.	.	.	.	]
.	8d#'/J 8f# 8a	.	.	.	.	.
4.CCn/)) 4.C	8d#/L 8f# 8a	>	8ff#\L]	.	.	.
.	8e/ 8a	.	8ee\J	.	.	.
.	8e/J 8f# 8a#X	]]	8e/	la,	la,	.
=43	=43	=43	=43	=43	=43	=43
!	!	!	!	!	!	!LO:DY:a
4.BB/	8e/L 8g# 8b	.	(8g#/	la,	la,	<
.	8f#/ 8dd#	.	4b/)	.	.	[
.	8e/J 8cc#	.	.	.	.	.
!	!	!	!	!	!	!LO:DY:a
4.BBB/ 4.BB	8d#/L 8b	.	(8f#/	la,	la,	<
.	8c#/ 8a	.	4b/)	.	.	[
.	8A/J 8d# 8f#	.	.	.	.	.
!!linebreak:original
=44	=44	=44	=44	=44	=44	=44
!LO:TX:t=P:problem=mixed beam	!	!	!	!	!	!
8EE/L	(8.e/L	.	4e/	la.	la.	.
8BB\ 8G#	.	.	.	.	.	.
.	16b/L	.	.	.	.	.
8EE/J	16cc#/	.	8r	.	.	.
.	16ee/JJ	.	.	.	.	.
!LO:TX:t=P:problem=mixed beam	!	!	!	!	!	!
8BB\L 8G#	16bb\LL	.	4r	.	.	.
.	16ccc#\	.	.	.	.	.
8EE/	16eee\	.	.	.	.	.
.	16ccc#\	.	.	.	.	.
8BB\J 8G#	16bb\	.	8r	.	.	.
.	16ee\JJ	.	.	.	.	.
=45	=45	=45	=45	=45	=45	=45
!LO:TX:t=P:problem=mixed beam	!	!	!	!	!	!
8EE/L	16cc#/LL	.	2.r	.	.	.
.	16b/	.	.	.	.	.
8BB\ 8G#	16e/	.	.	.	.	.
.	16b/	.	.	.	.	.
8EE/J	16cc#/	.	.	.	.	.
.	16ee/JJ)	.	.	.	.	.
!LO:TX:t=P:problem=mixed beam	!	!	!	!	!	!
8BB\L 8G#	8f#'/L 8dd#	.	.	.	.	.
8EE/	8e'/ 8cc#	.	.	.	.	.
8BB\J 8G#	8d#'/J 8b	.	.	.	.	.
=46	=46	=46	=46	=46	=46	=46
!LO:TX:t=P:problem=mixed beam	!	!	!	!	!	!
(8EE/L	8.e^\L	.	2.r	.	.	.
8BB\J) 8G#	.	.	.	.	.	.
.	16b\L	.	.	.	.	.
!LO:TX:t=P:problem=mixed beam	!	!	!	!	!	!
(8EE/L	16cc#\	.	.	.	.	.
.	16ee\JJ	.	.	.	.	.
8BB\J) 8G#	16bb\LL	.	.	.	.	.
.	16ccc#\	.	.	.	.	.
!LO:TX:t=P:problem=mixed beam	!	!	!	!	!	!
(8EE/L	16eee\	.	.	.	.	.
.	16ccc#\	.	.	.	.	.
8BB\J) 8G#	16bb\	.	.	.	.	.
.	16gg#\JJ	.	.	.	.	.
=47	=47	=47	=47	=47	=47	=47
!	!LO:TX:t=P:problem=mixed beam	!	!	!	!	!
2.ryy	16ee\LL	.	2.r	.	.	.
.	16cc#\	.	.	.	.	.
.	16b\	.	.	.	.	.
.	16g#\	.	.	.	.	.
.	16e\	.	.	.	.	.
.	16c#</JJ	.	.	.	.	.
.	16B</LL	.	.	.	.	.
.	16G#</	.	.	.	.	.
.	16E</	.	.	.	.	.
.	16C#</	.	.	.	.	.
.	16BB</	.	.	.	.	.
.	16GG#</JJ	.	.	.	.	.
=48	=48	=48	=48	=48	=48	=48
4EE/	4r	pp	2.r	.	.	.
8r	8r	.	.	.	.	.
!	!LO:TX:b:t=fine	!	!	!	!	!
4.G#;<\ 4.B 4.e>	4.g#;/ 4.b 4.ee 4.gg#	.	.	.	.	.
==	==	==	==;	==	==	==
*-	*-	*-	*-	*-	*-	*-
!!!system-decoration: s1[(s2,s3)]
!!!RDF**kern: > = above
!!!RDF**kern: < = below
!!!RDF**dynam: p = "p."
!!!RDF**dynam: pp = "pp."
!!!RDF**dynam: f = "f."
!!!ENC: Katarzyna Serwa
!!!END: 2021-10-12
!!!ENC: Filip Voros
!!!END: 2021-09-17
